X:1043
T:A Mother's Love
C:Joe Buchanan's Scottish Tome - Page 632.2
I:632 2
Z:Carl Allison
R:Waltz
L:1/4
M:3/4
K:C
V:2 treble
G | "C"E2 G | "G7"F2 E | "C"D C2 | "C7"C E G | "F"c2 d | "D7"c B A | "G"G3 | "G7"G A B |
"F"c2 c | "G7"B2 A | "C"G2 E | "Am"E F G | "D7"A2 D | "D7"D2 E | "G7"D3- | "G7"D2 G |
"C"E2 G | "G7"G2 E | "Am"D C2 | "G7"C E G | "F"c2 d | "D7"c B A | "G7"G3 | "G7"G A B |
"Am"c c c | "F"B2 A | "C"G2 E | "Am"C D E | "Dm"F G A | "G7"E D | "C"C3- | "C"[CEG^B]2 C |]

